places/48/folder-temp.svg

<?xml version="1.0" encoding="UTF-8" standalone="no"?>
<svg
   width="48pt"
   height="48pt"
   style="isolation:isolate"
   version="1.1"
   viewBox="0 0 48 48"
   id="svg3"
   sodipodi:docname="folder-temp.svg"
   inkscape:version="1.3.2 (091e20ef0f, 2023-11-25)"
   xmlns:inkscape="http://www.inkscape.org/namespaces/inkscape"
   xmlns:sodipodi="http://sodipodi.sourceforge.net/DTD/sodipodi-0.dtd"
   xmlns="http://www.w3.org/2000/svg"
   xmlns:svg="http://www.w3.org/2000/svg">
  <defs
     id="defs3">
    <linearGradient
       id="a-3"
       x2="1"
       y1="0.5"
       y2="0.5"
       gradientTransform="matrix(45,0,0,33.7,-59.976328,-7.2813973)"
       gradientUnits="userSpaceOnUse">
      <stop
         stop-color="#50c9c3"
         offset="0"
         id="stop1-6" />
      <stop
         stop-color="#96deda"
         offset=".983"
         id="stop2-7" />
    </linearGradient>
  </defs>
  <sodipodi:namedview
     id="namedview3"
     pagecolor="#ffffff"
     bordercolor="#666666"
     borderopacity="1.0"
     inkscape:showpageshadow="2"
     inkscape:pageopacity="0.0"
     inkscape:pagecheckerboard="0"
     inkscape:deskcolor="#d1d1d1"
     inkscape:document-units="pt"
     inkscape:current-layer="svg3"
     showguides="false">
    <sodipodi:guide
       position="29.843972,48"
       orientation="0,-1"
       id="guide1"
       inkscape:locked="false" />
  </sodipodi:namedview>
  <linearGradient
     id="a"
     x2="1"
     y1=".5"
     y2=".5"
     gradientTransform="matrix(45 0 0 33.7 1.49 12.8)"
     gradientUnits="userSpaceOnUse">
    <stop
       stop-color="#50c9c3"
       offset="0"
       id="stop1"
       style="stop-color:#50c9c3;stop-opacity:0;" />
    <stop
       stop-color="#96deda"
       offset="0.98299998"
       id="stop2"
       style="stop-color:#ffffff;stop-opacity:0.40000001;" />
  </linearGradient>
  <g
     id="g1">
    <path
       id="path4"
       d="M 13.889648 11.469727 L 6.4995117 11.47998 C 5.1595131 11.47998 3.9395499 12.008864 3.0395508 12.859863 C 2.3135515 13.500863 1.5 14.819435 1.5 16.419434 L 1.5 41.519531 C 1.5 44.249529 3.7395145 46.460449 6.4995117 46.460449 L 41.500488 46.460449 C 44.260486 46.460449 46.5 44.249529 46.5 41.519531 L 46.5 21.319336 C 46.5 18.589339 44.260486 16.379883 41.500488 16.379883 L 26.271973 16.388672 C 22.849568 16.260671 20.22115 14.524367 17.519531 12.619629 C 16.620532 11.98763 14.999647 11.469727 13.889648 11.469727 z "
       style="fill:#50c9c3;fill-opacity:1" />
    <path
       d="m 6.5,11.48 c -1.34,0 -2.56,0.529 -3.46,1.38 -0.6998917,2.126911 0.202267,3.266682 2.23,3.54 h 21.3 C 23,16.3658 20.3,14.58 17.52,12.62 16.621,11.988 15,11.47 13.89,11.47 Z M 2.37,13.65 C 2.36167,13.6621 2.3533,13.674 2.3451,13.6862 2.35325,13.674 2.3618,13.6621 2.37,13.65 Z m -0.202,0.324 c -0.0434,0.0748 -0.085,0.15 -0.124,0.227 0.0396,-0.0785 0.0822,-0.153 0.124,-0.227 z M 1.975,14.345 C 1.9207,14.46 1.871,14.577 1.826,14.697 1.8718,14.576 1.9225,14.459 1.975,14.345 Z M 1.783,14.814 C 1.7384,14.941 1.6999,15.072 1.666,15.203 1.7008,15.07 1.7391,14.94 1.783,14.814 Z m -0.148,0.504 c -0.03,0.129 -0.0522,0.261 -0.0718,0.394 0.02,-0.133 0.0418,-0.266 0.0718,-0.394 z m -0.0981,0.563 c -0.02,0.179 -0.0322,0.361 -0.0322,0.546 -3.73e-4,-0.186 0.012,-0.368 0.0322,-0.546 z"
       fill="#37a29c"
       id="path2"
       sodipodi:nodetypes="ccccccccccccccccccccccccc"
       style="fill:#000000;fill-opacity:0.19999999" />
  </g>
  <path
     d="m5.27 16.4c-2-0.266-2.92-1.39-2.23-3.54-0.726 0.641-1.54 1.96-1.54 3.56v25.1c0 2.73 2.24 4.94 5 4.94h35c2.76 0 5-2.21 5-4.94v-20.2c0-2.73-2.24-4.94-5-4.94z"
     fill="url(#a)"
     id="path3" />
  <g
     id="g1-3"
     transform="matrix(1.4166844,0,0,1.4166844,23.589335,23.459296)"
     style="fill:#ffffff;fill-opacity:1">
    <path
       id="path1"
       style="fill:#ffffff;fill-opacity:1;stroke:none;stroke-opacity:1"
       d="M 8.1054688,2 C 6.1796443,1.967811 4.27385,2.8620785 3.0859375,4.5585938 1.1852772,7.2730177 1.8441732,11.013405 4.5585938,12.914062 c 0.037371,0.02617 0.075529,0.05097 0.1132812,0.07617 a 1.6,1.6 0 0 1 0.00391,-0.01563 0.5,0.5 0 0 0 0.5800782,-0.18164 0.5,0.5 0 0 0 -0.1230469,-0.697266 0.5,0.5 0 0 0 -0.00781,-0.0039 1.6,1.6 0 0 1 0.00195,-0.002 C 2.8705963,10.504492 2.3219933,7.3925764 3.9042969,5.1328125 5.4881781,2.8707958 8.6051701,2.3204157 10.867188,3.9042969 c 2.262015,1.5838814 2.812399,4.700873 1.228515,6.9628911 -1.004822,1.435035 -2.6265065,2.179734 -4.2558592,2.128906 a 1.6,1.6 0 0 1 0,0.002 1.6,1.6 0 0 1 0,0.002 0.5,0.5 0 0 0 -0.5390626,0.367188 0.5,0.5 0 0 0 0.3535157,0.611328 0.5,0.5 0 0 1 0.00195,0 1.6,1.6 0 0 1 -0.00391,0.01172 c 0.023397,0.0013 0.046914,8.92e-4 0.070312,0.002 a 0.5,0.5 0 0 0 0.087891,0.002 C 9.7647752,14.054213 11.708851,13.162628 12.914062,11.441406 14.814725,8.7269823 14.155827,4.9865948 11.441406,3.0859375 10.423498,2.3731908 9.2609633,2.0193134 8.1054688,2 Z M 7.5,4 A 0.5,0.51612902 0 0 0 7,4.515625 V 8 9 h 1 4 A 0.51612902,0.5 0 0 0 12.515625,8.5 0.51612902,0.5 0 0 0 12,8 H 8 V 4.515625 A 0.5,0.51612902 0 0 0 7.5,4 Z M 6.2167969,12.71875 A 0.5,0.5 0 0 0 5.7871094,13.046875 0.5,0.5 0 0 0 6.0859375,13.6875 0.5,0.5 0 0 0 6.7265625,13.388672 0.5,0.5 0 0 0 6.4277344,12.748047 0.5,0.5 0 0 0 6.2167969,12.71875 Z" />
  </g>
</svg>

<?xml version="1.0" encoding="UTF-8"?>
<svg id="svg5" width="48pt" height="48pt" style="isolation:isolate" version="1.1" viewBox="0 0 48 48" xmlns="http://www.w3.org/2000/svg">
	<defs id="defs2">
		<style id="current-color-scheme" type="text/css">.ColorScheme-Text { color:#fff; }
.ColorScheme-Highlight { color:#50c9c3; }
.ColorScheme-HighlightedText { color:#fff }</style>
		<linearGradient id="a" x1="1.5" x2="46" y1="32" y2="32" gradientTransform="translate(-.000766 -.557)" gradientUnits="userSpaceOnUse">
			<stop id="stop1" stop-color="#fff" stop-opacity="0" offset="0"/>
			<stop id="stop2" class="ColorScheme-HighlightedText" stop-color="currentColor" stop-opacity=".4" offset="1"/>
		</linearGradient>
	</defs>
	<path id="path2" class="ColorScheme-Highlight" d="m6.43 11.5c-2.71 0-4.92 2.21-4.92 4.93l-0.00593 25.1c0 2.72 2.21 4.93 4.92 4.93h35.2c2.71 0 4.92-2.21 4.92-4.93v-20.1c0-2.72-2.21-4.93-4.92-4.93h-15.1c-4.02 0-6.53-1.91-9.24-3.82-0.904-0.634-2.52-1.21-3.63-1.21z" fill="currentColor"/>
	<path id="path3" d="m6.52 11.5c-1.41-0.00369-2.69 0.568-3.59 1.45-0.703 2.2 0.405 3.25 2.48 3.55h21.1c-4.02 0-6.43-1.8-9.24-3.8-0.904-0.64-2.52-1.2-3.63-1.2z" fill-opacity=".2"/>
	<path id="path4" class="ColorScheme-HighlightedText" d="m1.51 16.5c-0.00201 8.43-0.00392 17.1-0.00593 25.1 6e-7 2.71 2.21 4.92 4.92 4.92h35.2c2.71 0 4.92-2.21 4.92-4.92v-20.1c0-2.71-2.21-5-4.92-5z" fill="url(#a)"/>
	<g id="pathtext" class="ColorScheme-Text" transform="matrix(1.42 0 0 1.42 22.7 23.7)" fill="currentColor" style="isolation:isolate">
		<path id="path1" d="m8.11 2c-1.93-0.0322-3.83 0.862-5.02 2.56-1.9 2.71-1.24 6.45 1.47 8.36 0.0374 0.0262 0.0755 0.051 0.113 0.0762a1.6 1.6 0 0 1 0.00391-0.0156 0.5 0.5 0 0 0 0.58-0.182 0.5 0.5 0 0 0-0.123-0.697 0.5 0.5 0 0 0-0.00781-0.0039 1.6 1.6 0 0 1 0.00195-2e-3c-2.26-1.59-2.8-4.7-1.22-6.96 1.58-2.26 4.7-2.81 6.96-1.23 2.26 1.58 2.81 4.7 1.23 6.96-1 1.44-2.63 2.18-4.26 2.13a1.6 1.6 0 0 1 0 2e-3 1.6 1.6 0 0 1 0 2e-3 0.5 0.5 0 0 0-0.539 0.367 0.5 0.5 0 0 0 0.354 0.611 0.5 0.5 0 0 1 0.00195 0 1.6 1.6 0 0 1-0.00391 0.0117c0.0234 0.0013 0.0469 8.92e-4 0.0703 2e-3a0.5 0.5 0 0 0 0.0879 2e-3c1.95 0.0599 3.9-0.832 5.1-2.55 1.9-2.71 1.24-6.45-1.47-8.36-1.02-0.713-2.18-1.07-3.34-1.09zm-0.605 2a0.5 0.516 0 0 0-0.5 0.516v4.48h5a0.516 0.5 0 0 0 0.516-0.5 0.516 0.5 0 0 0-0.516-0.5h-4v-3.48a0.5 0.516 0 0 0-0.5-0.516zm-1.28 8.72a0.5 0.5 0 0 0-0.43 0.328 0.5 0.5 0 0 0 0.299 0.641 0.5 0.5 0 0 0 0.641-0.299 0.5 0.5 0 0 0-0.299-0.641 0.5 0.5 0 0 0-0.211-0.0293z" fill="currentColor"/>
	</g>
	<g id="g6" transform="matrix(1.42 0 0 1.42 22.7 23.7)" fill="#fff" fill-opacity=".2" style="isolation:isolate">
		<path id="path6" d="m8.11 2c-1.93-0.0322-3.83 0.862-5.02 2.56-1.9 2.71-1.24 6.45 1.47 8.36 0.0374 0.0262 0.0755 0.051 0.113 0.0762a1.6 1.6 0 0 1 0.00391-0.0156 0.5 0.5 0 0 0 0.58-0.182 0.5 0.5 0 0 0-0.123-0.697 0.5 0.5 0 0 0-0.00781-0.0039 1.6 1.6 0 0 1 0.00195-2e-3c-2.26-1.59-2.8-4.7-1.22-6.96 1.58-2.26 4.7-2.81 6.96-1.23 2.26 1.58 2.81 4.7 1.23 6.96-1 1.44-2.63 2.18-4.26 2.13a1.6 1.6 0 0 1 0 2e-3 1.6 1.6 0 0 1 0 2e-3 0.5 0.5 0 0 0-0.539 0.367 0.5 0.5 0 0 0 0.354 0.611 0.5 0.5 0 0 1 0.00195 0 1.6 1.6 0 0 1-0.00391 0.0117c0.0234 0.0013 0.0469 8.92e-4 0.0703 2e-3a0.5 0.5 0 0 0 0.0879 2e-3c1.95 0.0599 3.9-0.832 5.1-2.55 1.9-2.71 1.24-6.45-1.47-8.36-1.02-0.713-2.18-1.07-3.34-1.09zm-0.605 2a0.5 0.516 0 0 0-0.5 0.516v4.48h5a0.516 0.5 0 0 0 0.516-0.5 0.516 0.5 0 0 0-0.516-0.5h-4v-3.48a0.5 0.516 0 0 0-0.5-0.516zm-1.28 8.72a0.5 0.5 0 0 0-0.43 0.328 0.5 0.5 0 0 0 0.299 0.641 0.5 0.5 0 0 0 0.641-0.299 0.5 0.5 0 0 0-0.299-0.641 0.5 0.5 0 0 0-0.211-0.0293z" fill="#fff" fill-opacity=".2"/>
	</g>
</svg>
